X:68
T:Lady Villier's Delight THO4.068
M:3/8
L:1/8
Z:vmp. Peter Dunk 2010/11.from a transcription by Fynn Titford-Mock 2007
B:Thompson's Compleat Collection of 200 Favourite Country Dances Volume IV.
Q:1/8=140
K:G
(3d/e/f/|gdd|dBG|AA/B/c/A/|BG (3d/e/f/|gdd|dBG|AA/G/A/B/|G2:|
|:D|FAc|Bdg|fa^c|d2 (3d/e/f/|gdd|dBG|AA/G/A/B/|G2:|
